src/icon/entity/registry/icon_registry_xl_black.svg

<?xml version="1.0" encoding="UTF-8"?>
<svg width="36px" height="36px" viewBox="0 0 36 36" version="1.1" xmlns="http://www.w3.org/2000/svg" xmlns:xlink="http://www.w3.org/1999/xlink">
    <!-- Generator: Sketch 49 (51002) - http://www.bohemiancoding.com/sketch -->
    <title>icon_registry_xl_black</title>
    <desc>Created with Sketch.</desc>
    <defs></defs>
    <g id="Page-1" stroke="none" stroke-width="1" fill="none" fill-rule="evenodd">
        <g id="Artboard" transform="translate(-15.000000, -25.000000)">
            <g id="icon_registry_xl_black" transform="translate(15.000000, 25.000000)">
                <polygon id="Shape" points="0 0 36 0 36 36 0 36"></polygon>
                <path d="M1.879,7.036 C1.3165968,7.59823315 1.00043502,8.36076212 1,9.156 L1,30.5 C1,32.1568542 2.34314575,33.5 4,33.5 L32,33.5 C33.6568542,33.5 35,32.1568542 35,30.5 L35,11.5 C35,9.84314575 33.6568542,8.5 32,8.5 L17.465,8.5 L15.355,5.336 C14.7988519,4.50170488 13.8626709,4.00040712 12.86,4 L6.157,4 C5.36141556,4.00016991 4.59847819,4.31635188 4.036,4.879 L1.879,7.036 Z M1.172,6.328 L3.328,4.172 C4.07821593,3.42155747 5.09587421,2.99996132 6.157,3 L12.859,3 C14.1963037,3.00002285 15.4451308,3.66834046 16.187,4.781 L18,7.5 L32,7.5 C34.209139,7.5 36,9.290861 36,11.5 L36,30.5 C36,32.709139 34.209139,34.5 32,34.5 L4,34.5 C1.790861,34.5 2.705415e-16,32.709139 0,30.5 L0,9.157 C-3.86813091e-05,8.09587421 0.421557467,7.07821593 1.172,6.328 Z" id="Shape" fill="#0B1F35" fill-rule="nonzero"></path>
                <path d="M9,16.5 L27,16.5 L27,19.5 L9,19.5 L9,16.5 Z M9,22.5 L27,22.5 L27,25.5 L9,25.5 L9,22.5 Z" id="Shape" fill="#0B1F35" fill-rule="nonzero" opacity="0.3"></path>
            </g>
        </g>
    </g>
</svg>

<svg width="36" height="36" viewBox="0 0 36 36" xmlns="http://www.w3.org/2000/svg"><g fill="none" fill-rule="evenodd"><path d="M0 0h36v36H0z"/><path d="M1.879 7.036A3 3 0 0 0 1 9.156V30.5a3 3 0 0 0 3 3h28a3 3 0 0 0 3-3v-19a3 3 0 0 0-3-3H17.465l-2.11-3.164A3 3 0 0 0 12.86 4H6.157a3 3 0 0 0-2.121.879L1.879 7.036zm-.707-.708l2.156-2.156A4 4 0 0 1 6.157 3h6.702a4 4 0 0 1 3.328 1.781L18 7.5h14a4 4 0 0 1 4 4v19a4 4 0 0 1-4 4H4a4 4 0 0 1-4-4V9.157a4 4 0 0 1 1.172-2.829z" fill="#0B1F35" fill-rule="nonzero"/><path d="M9 16.5h18v3H9v-3zm0 6h18v3H9v-3z" fill="#0B1F35" fill-rule="nonzero" opacity=".3"/></g></svg>
